public/static/img/common/clean.svg

<svg width="20" height="20" viewBox="0 0 20 20" fill="none" xmlns="http://www.w3.org/2000/svg">
<path d="M18.0276 7.2172L14.9791 5.66798L16.6865 2.28376C16.8013 2.1662 16.866 2.00867 16.867 1.84434C16.868 1.68001 16.8052 1.5217 16.6919 1.40274C16.5748 1.28645 16.4172 1.22001 16.2522 1.21737C16.0872 1.21472 15.9275 1.27607 15.8068 1.38855L13.9164 5.12951L11.2882 3.79987C11.0064 3.65799 10.7416 3.58637 10.5017 3.58637C10.0673 3.58637 9.78423 3.81338 9.66194 4.02823L9.63965 4.07147C7.70735 8.33063 2.13004 10.6771 2.07193 10.7014C1.82871 10.8088 1.6571 10.9994 1.58819 11.2372C1.47536 11.627 1.68885 11.9756 1.73277 12.0419L1.80101 12.1446L11.9861 18.4522C12.3442 18.6725 12.6496 18.7799 12.9185 18.7799C13.1752 18.7799 13.334 18.6813 13.4076 18.6198L13.436 18.5948C17.1189 15.0869 18.3046 9.92985 18.4208 8.74074C18.5194 7.72054 18.2195 7.3503 18.0276 7.2172ZM17.2986 8.62926C17.2979 8.63737 17.183 9.49677 16.7871 10.7892C14.9474 9.88525 10.7457 7.46177 9.36737 6.66183C9.8379 6.06367 10.2433 5.41704 10.5767 4.73291C10.6227 4.7444 10.6909 4.76804 10.7835 4.81399C11.3652 5.10721 15.7453 7.32597 17.0763 8.00025L17.2952 8.11105C17.3107 8.19551 17.3249 8.35631 17.2986 8.62926ZM12.1679 14.3741C12.2865 14.2572 12.3545 14.0984 12.3572 13.9318C12.3598 13.7652 12.2969 13.6043 12.182 13.4836C12.0649 13.3674 11.9074 13.3009 11.7424 13.2983C11.5774 13.2956 11.4177 13.357 11.297 13.4695L9.34102 15.3747C9.31885 15.3962 9.29851 15.4195 9.28021 15.4443L6.30272 13.6005L8.30461 12.2283C8.44174 12.1336 8.53596 11.9885 8.56683 11.8247C8.59769 11.6609 8.5627 11.4916 8.46946 11.3534C8.42326 11.2854 8.36411 11.2272 8.29539 11.1821C8.22668 11.1369 8.14975 11.1058 8.069 11.0904C7.98824 11.0751 7.90525 11.0758 7.82477 11.0925C7.74428 11.1092 7.66788 11.1416 7.59993 11.1879L5.34941 12.7303C5.2822 12.7768 5.225 12.8363 5.18118 12.9053L2.97525 11.5399C4.08733 11.021 6.59797 9.69878 8.6181 7.53677C10.0396 8.36374 14.513 10.9494 16.4203 11.8702C15.8216 13.4728 14.7177 15.7443 12.8225 17.6144C12.7369 17.5783 12.6545 17.5351 12.5759 17.4854L10.3734 16.1213L12.1679 14.3741Z" fill="#8F92A1"/>
</svg>

<svg width="20" height="20" fill="none" xmlns="http://www.w3.org/2000/svg"><path d="m18.028 7.217-3.049-1.549 1.707-3.384a.634.634 0 0 0 .006-.881.639.639 0 0 0-.885-.014l-1.89 3.74-2.629-1.33c-.282-.141-.546-.213-.786-.213-.435 0-.718.227-.84.442l-.022.043c-1.933 4.26-7.51 6.606-7.568 6.63a.842.842 0 0 0-.484.536c-.113.39.1.739.145.805l.068.103 10.185 6.307c.358.22.664.328.932.328a.75.75 0 0 0 .49-.16l.028-.025c3.683-3.508 4.869-8.665 4.985-9.854.098-1.02-.201-1.39-.393-1.524Zm-.73 1.412c0 .008-.115.868-.51 2.16-1.84-.904-6.042-3.327-7.42-4.127a10.74 10.74 0 0 0 1.209-1.93c.046.012.114.036.207.082.581.293 4.961 2.512 6.292 3.186l.22.111c.015.085.029.245.003.518Zm-5.13 5.745a.635.635 0 0 0 .014-.89.638.638 0 0 0-.885-.014l-1.956 1.905a.56.56 0 0 0-.06.07L6.302 13.6l2.002-1.372a.633.633 0 0 0-.01-1.046.625.625 0 0 0-.695.006L5.35 12.73a.611.611 0 0 0-.169.175L2.975 11.54c1.112-.519 3.623-1.841 5.643-4.003 1.422.827 5.895 3.412 7.802 4.333-.598 1.603-1.702 3.874-3.598 5.744a1.69 1.69 0 0 1-.246-.129l-2.203-1.364 1.795-1.747Z" fill="#8F92A1"/></svg>
